X:1
T:Gdy się Chrystus rodzi
T:Aranżacja: Jakub Korbanek
%%score { 1 | 2 }
L:1/8
M:4/4
K:C
V:1 treble nm="Piano" snm="Pno."
V:2 bass 
V:1
 [CG]4 [CE]4 | [CA]4 [CG]4 | [CE]2 [CE] F3 [G,D]2 | [G,D]2 C6 | G2 E2 c2 A2 | A4 G4 | E2 E2 F3 D | %7
w: ||||Gdy się Chry- stus|ro- dzi|i na świat przy-|
 D4 C4 | G2 E2 c2 A2 | A4 G4 | E2 E2 F3 D | D4 C4 |: z [B,D] z [B,D] z [B,DF] z [B,D] | %13
w: cho- dzi,|cie- mna noc wja-|sno- ściach|pro- mie- ni- stych|bro- dzi|A- nio- ło- wie|
 z [CE] z [CE] z [CEG] z [CE] | z [B,D] z [B,D] z [B,DF] z [B,D] | z [CE] z [CE] z [CEG] z [CE] | %16
w: się ra- du- ją|pod nie- bio- sy|wy- śpie- wu- ją:|
 [CG]3 [CG] [CG]4 | [CA]3 [CA] [CA]4 | [DB]3 [DB] [DA]2 [DB]2 | [Ec]2 [DG]2 [CA]2 [CF]2 | %20
w: Glo- ri- a,|glo- ri- a,|glo- * ri- a|in- ex- cel- sis-|
 E4 [B,D]4 | C7 z :: ^E,4 =E,4 |] %23
w: de- *|o||
V:2
 C,,4 G,,4 | F,,2 E,,2 C,,4 | G,,3 D,,3 F,,2 | E,,2 C,,6 | C,2 B,,2 A,,2 G,,2 | F,,4 C,,4 | %6
 C2 B,2 G,2 D,2 | G,,2 F,,2 C,,4 | C,2 B,,2 A,,2 G,,2 | F,,4 E,,4 | C2 B,2 G,2 D,2 | %11
 G,,2 F,,2 C,,4 |: [G,,G,]3/2 z/ [F,,F,]3/2 z/ [E,,E,]3/2 z/ [D,,D,]3/2 z/ | %13
 [C,,C,]3/2 z/ [D,,D,]3/2 z/ [E,,E,]3/2 z/ [F,,F,]3/2 z/ | %14
 [G,,G,]3/2 z/ [F,,F,]3/2 z/ [E,,E,]3/2 z/ [D,,D,]3/2 z/ | %15
 [C,,C,]3/2 z/ [D,,D,]3/2 z/ [E,,E,]3/2 z/ [F,,F,] z | [C,C]2 [B,,B,]2 [A,,A,]2 [G,,G,]2 | %17
 [F,,F,]2 [E,,E,]2 [D,,D,]2 [C,,C,]2 | [G,,G,]3 [G,,G,] [^F,,^F,]2 z2 | A,,,4 F,,2 C,2 | %20
 C,,4 G,,4 | F,,7 z :: z4 C,,4 |] %23

